X: 1
T: Lord of the Dance
C: Sydney Carter
M: 4/4
L: 1/8
K: G
"D7"D2 |\
"G"G2GA "Em"BABc | "Bm"d2dc "Em"B2B2 |\
"Am"A2A2 A2AB | "Am"cBAG "D7"F2D2 |\
"G"G2GA "Em"BABc | "Bm"d2dc "Em"B3B |\
"Am"A2A2 "D7"B3A | "C"G2G2 "G"G4 :|
|:\
"G"d4 "Em"B3A | "G"BcBA "Em"G4 |\
"G"B2Bc d2cB | "Am"A2A2 "D7"A2 D2 |\
"G"G2G2 "C"G3A | "D7"BABc "G"d2cB |\
"Am"A2A2 "D7"B2BA | "G"G2"C"G2 "G"G2 :|
